assets/icons/description.svg

<svg width="30" height="20" viewBox="0 0 30 20" fill="none" xmlns="http://www.w3.org/2000/svg">
<g clip-path="url(#clip0_57_280)">
<path d="M1.94961 0.105255C1.59157 0.105255 1.24819 0.254973 0.995015 0.521472C0.741841 0.787971 0.599609 1.14942 0.599609 1.52631C0.599609 1.90319 0.741841 2.26464 0.995015 2.53114C1.24819 2.79764 1.59157 2.94736 1.94961 2.94736H28.0496C28.4076 2.94736 28.751 2.79764 29.0042 2.53114C29.2574 2.26464 29.3996 1.90319 29.3996 1.52631C29.3996 1.14942 29.2574 0.787971 29.0042 0.521472C28.751 0.254973 28.4076 0.105255 28.0496 0.105255H1.94961Z" fill="#B791F5"/>
<path d="M1.94961 5.78946C1.59157 5.78946 1.24819 5.93918 0.995015 6.20568C0.741841 6.47217 0.599609 6.83362 0.599609 7.21051C0.599609 7.5874 0.741841 7.94885 0.995015 8.21535C1.24819 8.48185 1.59157 8.63156 1.94961 8.63156H28.0496C28.4076 8.63156 28.751 8.48185 29.0042 8.21535C29.2574 7.94885 29.3996 7.5874 29.3996 7.21051C29.3996 6.83362 29.2574 6.47217 29.0042 6.20568C28.751 5.93918 28.4076 5.78946 28.0496 5.78946H1.94961Z" fill="#B791F5"/>
<path d="M0.599609 12.8947C0.599609 12.5178 0.741841 12.1564 0.995015 11.8899C1.24819 11.6234 1.59157 11.4737 1.94961 11.4737H28.0496C28.4076 11.4737 28.751 11.6234 29.0042 11.8899C29.2574 12.1564 29.3996 12.5178 29.3996 12.8947C29.3996 13.2716 29.2574 13.6331 29.0042 13.8996C28.751 14.166 28.4076 14.3158 28.0496 14.3158H1.94961C1.59157 14.3158 1.24819 14.166 0.995015 13.8996C0.741841 13.6331 0.599609 13.2716 0.599609 12.8947Z" fill="#B791F5"/>
<path d="M1.94961 17.1579C1.59157 17.1579 1.24819 17.3076 0.995015 17.5741C0.741841 17.8406 0.599609 18.2021 0.599609 18.5789C0.599609 18.9558 0.741841 19.3173 0.995015 19.5838C1.24819 19.8503 1.59157 20 1.94961 20H19.0496C19.4077 20 19.751 19.8503 20.0042 19.5838C20.2574 19.3173 20.3996 18.9558 20.3996 18.5789C20.3996 18.2021 20.2574 17.8406 20.0042 17.5741C19.751 17.3076 19.4077 17.1579 19.0496 17.1579H1.94961Z" fill="#B791F5"/>
</g>
<defs>
<clipPath id="clip0_57_280">
<rect width="30" height="20" fill="white"/>
</clipPath>
</defs>
</svg>

<svg width="30" height="20" viewBox="0 0 30 20" fill="none" xmlns="http://www.w3.org/2000/svg"><g clip-path="url(#description_svg__clip0_57_280)" fill="#B791F5"><path d="M1.95.105c-.358 0-.702.15-.955.416A1.46 1.46 0 00.6 1.526c0 .377.142.739.395 1.005.253.267.597.416.955.416h26.1c.358 0 .701-.15.954-.416a1.46 1.46 0 00.396-1.005 1.46 1.46 0 00-.396-1.005 1.317 1.317 0 00-.954-.416H1.95zM1.95 5.79c-.358 0-.702.15-.955.416A1.46 1.46 0 00.6 7.21c0 .376.142.738.395 1.004.253.267.597.417.955.417h26.1c.358 0 .701-.15.954-.417a1.46 1.46 0 00.396-1.004 1.46 1.46 0 00-.396-1.005 1.317 1.317 0 00-.954-.417H1.95zM.6 12.895c0-.377.142-.739.395-1.005.253-.267.597-.416.955-.416h26.1c.358 0 .701.15.954.416s.396.628.396 1.005c0 .377-.143.738-.396 1.005a1.317 1.317 0 01-.954.416H1.95c-.358 0-.702-.15-.955-.416A1.46 1.46 0 01.6 12.895zM1.95 17.158c-.358 0-.702.15-.955.416A1.46 1.46 0 00.6 18.58c0 .377.142.738.395 1.005.253.266.597.416.955.416h17.1c.358 0 .701-.15.954-.416a1.46 1.46 0 00.396-1.005 1.46 1.46 0 00-.396-1.005 1.317 1.317 0 00-.954-.416H1.95z"/></g><defs><clipPath id="description_svg__clip0_57_280"><path fill="#fff" d="M0 0h30v20H0z"/></clipPath></defs></svg>
